X:1
T:It Pays to Serve Jesus
C:Frank Claude Huston, 1909
Z:Terms:Public Domain
Z:Transcription:Converted on 2026-05-28 using nwctxt2abc from https://github.com/freehymns/translator
Z:Sources:The Cyber Hymnal(tm), from The Broadman Hymnal (Nashville, Tennessee: Broadman Press, 1940), # 414.
I:score (1 2) (3 4)
I:voicecombine 1
L:1/1
M:3/4
Q:1/4=120
K:Eb
V:1 clef=treble stem=up
[M:3/4] B,/4 | G3/8 ^F/8 G/4 | G/4 B/4 A/4 | G3/8 E/8 C/4 | B,/2 \
w:A1 A2 A3 A4 A5 A6 A7 A8 A9 A10 A11
E/4 | E3/8 D/8 C/4 | D/2 \
w:B1 B2 B3 B4 B5
A/4 | A3/8 G/8 ^F/4 | G/2 \
w:C1 C2 C3 C4 C5
B,/4 | G3/8 ^F/8 G/4 | G/4 B/4 A/4 | G3/8 E/8 C/4 | B,/2 \
w:D1 D2 D3 D4 D5 D6 D7 D8 D9 D10 D11
E/4 | E3/8 D/8 C/4 | D/4 G/4 F/4 | E3/4- | E/2 || \
w:E1 E2 E3 E4 E5 E6 E7 E8_
G/4 | B3/8 F/8 G/4 | A/4 c3/8 d/8 | e/2 G/8 c/8 | B/2 \
w:F1 F2 F3 F4 F5 F6 F7 F8 F9 F10 F11
B/4 | B/2 F/8 B/8 | c/4 F/4 c/4 | B3/4- | B/2 \
w:G1 G2 G3 G4 G5 G6 G7 G8_
B/8 B/8 | B/4 A/4 G/4 | G/4 F/4 E/4 | E/4 A/4 c/4 | e/2 \
w:H1 H2 H3 H4 H5 H6 H7 H8 H9 H10 H11 H12
d/8 c/8 | B/8 e3/8 G/4 | F3/8 E/8 F/4 | E3/4- | E/2 |]
w:I1 I2 I3 I4 I5 I6 I7 I8 I9_
V:2 clef=treble stem=down
x/4| x3/8 x/8 x/4| x/4 x/4 x/4| x3/8 x/8 x/4| x/2 \
x/4| x3/8 x/8 x/4| x/2 \
x/4| x3/8 x/8 x/4| x/2 \
x/4| x3/8 x/8 x/4| x/4 x/4 x/4| x3/8 x/8 x/4| x/2 \
x/4| x3/8 x/8 x/4| x/4 x/4 x/4| x3/4| x/2|| \
E/4 | D3/8 D/8 E/4 | F/4 A3/8 G/8 | G/2 E/8 E/8 | E/2 \
E/4 | D/2 D/8 D/8 | E/4 E/4 E/4 | (D/4 D/4 E/4 | D/2) \
D/8 D/8 | E/4 E/4 E/4 | E/4 D/4 _D/4 | C/4 C/4 E/4 | A/2 \
^F/8 F/8 | G/8 G3/8 E/4 | D3/8 x/8D/4 | x3/4| x/2|]
V:3 clef=bass stem=up
I:pos vocal above
[M:3/4] G,/4 | B,3/8 =A,/8 B,/4 | E/4 D/4 C/4 | B,3/8 G,/8 A,/4 | G,/2 \
w:a1 a2 a3 a4 a5 a6 a7 a8 a9 a10 a11
G,/4 | A,3/8 A,/8 A,/4 | A,/2 \
w:b1 b2 b3 b4 b5
C/4 | C3/8 B,/8 =A,/4 | B,/2 \
w:c1 c2 c3 c4 c5
G,/4 | B,3/8 =A,/8 B,/4 | E/4 D/4 C/4 | B,3/8 G,/8 A,/4 | G,/2 \
w:d1 d2 d3 d4 d5 d6 d7 d8 d9 d10 d11
G,/4 | A,3/8 A,/8 A,/4 | A,/4 B,/4 A,/4 | G,3/4- | G,/2 || \
w:e1 e2 e3 e4 e5 e6 e7 e8 e9
B,/4 | B,3/8 B,/8 B,/4 | D/4 D3/8 B,/8 | B,/2 B,/8 A,/8 | G,/2 \
w:f1 f2 f3 f4 f5 f6 f7 f8 f9 f10 f11
G,/4 | B,/2 B,/8 B,/8 | =A,/4 A,/4 A,/4 | B,/4 F,/4 G,/4 | A,/2 \
w:g1 g2 g3 g4 g5 g6 g7 g8 g9 g10 g11
A,/8 A,/8 | G,/4 C/4 B,/4 | B,/4 A,/4 B,/4 | A,/4 A,/4 A,/4 | C/2 \
w:h1 h2 h3 h4 h5 h6 h7 h8 h9 h10 h11 h12
C/8 C/8 | E/8 B,3/8 B,/4 | A,3/8 G,/8 A,/4 | G,3/4- | G,/2 |]
w:i1 i2 i3 i4 i5 i6 i7 i8 i9 i10
V:4 clef=bass stem=down
x/4| E,3/4- | E,3/4 | E,,3/4- | E,,3/4 | \
F,,3/4 | B,,3/4 | \
E,3/4 | E,,3/4 | \
E,3/4- | E,3/4 | E,,3/4- | E,,3/4 | \
F,,3/4 | B,,/4 [B,,E,]/4 [B,,D,]/4 | [E,,-B,,-]3/4 | [E,,B,,]/2 || \
E,/4 | B,,3/8 B,,/8 B,,/4 | B,,/4 B,,3/8 B,,/8 | E,/2 E,/8 E,/8 | E,/2 \
E,/4 | F,/2 F,/8 F,/8 | F,/4 F,/4 F,/4 | B,,3/4- | B,,/2 \
B,,/8 B,,/8 | E,/4 E,/4 E,/4 | B,,/4 B,,/4 G,,/4 | A,,/4 A,,/4 A,,/4 | [A,,A,]/2 \
[=A,,=A,]/8 [A,,A,]/8 | [B,,B,]/8 B,,3/8 B,,/4 | B,,3/8 B,,/8 B,,/4 | E,3/4- | E,/2 |]

